icons/e-bike-fill.svg

<svg viewBox="0 0 24 24" fill="currentColor" xmlns="http://www.w3.org/2000/svg"><path d="M15.5006 6.93685C17.5926 8.14727 19 10.4093 19 13V21H14.8293C14.4175 22.1652 13.3062 23 12 23C10.6938 23 9.58254 22.1652 9.17071 21H5V13C5 10.4093 6.40741 8.14727 8.49936 6.93685C8.33754 6.645 8.21115 6.33078 8.12602 6H5V4H8.12602C8.57006 2.27477 10.1362 1 12 1C13.8638 1 15.4299 2.27477 15.874 4H19V6H15.874C15.7888 6.33078 15.6625 6.645 15.5006 6.93685ZM12 14C11.4477 14 11 14.4477 11 15V20C11 20.5523 11.4477 21 12 21C12.5523 21 13 20.5523 13 20V15C13 14.4477 12.5523 14 12 14ZM12 7C13.1046 7 14 6.10457 14 5C14 3.89543 13.1046 3 12 3C10.8954 3 10 3.89543 10 5C10 6.10457 10.8954 7 12 7Z"/></svg>

<svg xmlns="http://www.w3.org/2000/svg" viewBox="0 0 24 24">
    <g>
        <path fill="none" d="M0 0h24v24H0z"/>
        <path d="M15.5 6.937A6.997 6.997 0 0 1 19 13v8h-4.17a3.001 3.001 0 0 1-5.66 0H5v-8a6.997 6.997 0 0 1 3.5-6.063A3.974 3.974 0 0 1 8.125 6H5V4h3.126a4.002 4.002 0 0 1 7.748 0H19v2h-3.126c-.085.33-.212.645-.373.937zM12 14a1 1 0 0 0-1 1v5a1 1 0 0 0 2 0v-5a1 1 0 0 0-1-1zm0-7a2 2 0 1 0 0-4 2 2 0 0 0 0 4z"/>
    </g>
</svg>
